X:1
T:Le Jardin Féerique
T:Le Jardin Féerique
T:from "Ma Mère l'Oye"
T:Maurice Ravel
C:Maurice Ravel
%%score { ( 1 3 ) | 2 } { ( 4 6 ) | ( 5 7 ) }
L:1/8
Q:1/4=56
M:3/4
K:C
V:1 treble nm="Piano 1"
V:3 treble 
V:2 bass 
V:4 treble nm="Piano 2"
V:6 treble 
V:5 bass 
V:7 bass 
V:1
"^Lent et grave"!pp! (C2 D3 C |"_poco cresc." E2 D2 G2 | G2 F3 G | A2 E4) |!p!!<(! (B2 A3 E!<)! | %5
!mp!!>(! D2 E4)!>)! |!p!!<(! (B2 A3 G!<)! |!mp!!>(! e2 d4)!>)! |!p!!<(! (f2 c3 A | G2 A4) | %10
 (f2 c3 A | g6)!<)! |!mf! z2 z2!pp! (!>!G2- |!<(! G2 F2 C2 | B,2) z2 z2!<)! |"^1"!p! (E2 D3 F | %16
 G2 A2 c2) | (e2 d3 f | g2 a2 c'2) |!p! !tenuto![gbe']2 !tenuto![egbe']2 !tenuto![dfad']2 | %20
 [egbe']6-{!stemless![ebe'g]} | z6 |!pp!!8va(! (!arpeggio![e'g'e'']2 !arpeggio![f'a'e'']3 d'' | %23
 (3e''^f''g'' !arpeggio![=f'a']b'!arpeggio![f'a'c'']d'') | %24
!<(! (!arpeggio![e'^c''^g'e'']2 !arpeggio![d'^f'b'e'']3 d'' | %25
 (3!arpeggio![^g^c'e'e'']^f''^g'' (3!arpeggio![ac'e'^g'a']b'^c'' (3!arpeggio![bd'^f'e'']d''a') | %26
"^expressif" !arpeggio![a^c'^f']2 !arpeggio![^gb^g']e' (3!arpeggio![ac'f']b'a'!<)! | %27
!mf!!>(! (3!arpeggio![a^c'^g']^f'e' !arpeggio![^gbg']2 (3f'd'^c'!8va)!!>)! |!p!!>(! z6 | z6!>)! | %30
!pp!"^2" (3b^c'^d' z2 z2 | z6 | %32
!pp!!8va(!!<(! (3(!arpeggio![b=d'=g'b']=c''d'' !arpeggio![a=c'e']=f'!arpeggio![fad'g']a') | %33
 (!arpeggio![bd'g'b']2 !arpeggio![gbe'b']3 a')!8va)! | %34
 (!arpeggio![Bdgb]2 !arpeggio![GBeb]3 a)!<)! |!f!!>(! (!arpeggio![DGB]2 !arpeggio![EB]3 A) | %36
 (!arpeggio![EB]2 !arpeggio![GB]3 A) | !arpeggio![GB]c !arpeggio![GBd]2 !arpeggio![FAce]f | %38
"^retenu" !arpeggio![Bdg]a !arpeggio![Begb]2 !arpeggio![Adfc']d'!>)! |"^au Mouvement" (d'2 c'3 b | %40
 a2 g2 c2) |"_poco cresc." (g2 f3 e | c2 B2 G2) |"^3"!p!!<(! (E2 D3 F | G2 A2 c2) | %45
 ([Ace]2 [FAd]3 [Adf] | [Beg]2 [dfa]2 [fac']2) |!8va(! ([ac'e']2 [fad']3 [ad'f'] | %48
 [be'g']2 [d'f'a']2 [f'a'c'']2)!<)!!8va)! | %49
!ff!"^4"!8va(! ([c''e''g''](14:8:14g''/8f''/8e''/8d''/8c''/8b'/8a'/8g'/8f'/8e'/8d'/8c'/8b/8!8va)!A/8)!8va(! (.g(9:8:9g/8a/8b/8c'/8d'/8e'/8f'/8g'/8a'/8)!8va)!"_L.H."!8va(! (.g'"_R.H."(9:8:9g'/8a'/8b'/8c''/8d''/8e''/8f''/8g''/8a''/8)!8va)! | %50
"_L.H."!8va(! (.g''"_R.H."(14:8:14g''/8f''/8e''/8d''/8c''/8b'/8a'/8g'/8f'/8e'/8d'/8c'/8b/8!8va)!A/8)!8va(! (.g(9:8:9g/8a/8b/8c'/8d'/8e'/8f'/8g'/8a'/8)!8va)!"_L.H."!8va(! (.g'"_R.H."(9:8:9g'/8a'/8b'/8c''/8d''/8e''/8f''/8g''/8a''/8)!8va)! | %51
"_L.H."!8va(! (.g''"_R.H."(14:8:14g''/8f''/8e''/8d''/8c''/8b'/8a'/8g'/8f'/8e'/8d'/8c'/8b/8!8va)!A/8)!8va(! (.g(9:8:9g/8a/8b/8c'/8d'/8e'/8f'/8g'/8a'/8)!8va)!"_L.H."!8va(! (.g'"_R.H."(9:8:9g'/8a'/8b'/8c''/8d''/8e''/8f''/8g''/8a''/8)!8va)! | %52
"_L.H."!8va(! .g''"_R.H."a/8b/8c'/8d'/8e'/8f'/8g'/8a'/8!8va)!"_L.H."!8va(! (.g'"_R.H."(9:8:9g'/8a'/8b'/8c''/8d''/8e''/8f''/8g''/8a''/8)!8va)!"_L.H."!8va(! .g''"_R.H."a/8b/8c'/8d'/8e'/8f'/8g'/8a'/8!8va)! | %53
"_L.H."!8va(! (.g'"_R.H."(9:8:9g'/8a'/8b'/8c''/8d''/8e''/8f''/8g''/8a''/8)!8va)!"_L.H."!8va(! .g''"_R.H."a/8b/8c'/8d'/8e'/8f'/8g'/8a'/8!8va)!"_L.H."!8va(! (.g'"_R.H."(9:8:9g'/8a'/8b'/8c''/8d''/8e''/8f''/8g''/8a''/8)!8va)! | %54
 !fermata!z6 |] %55
V:2
 (E,4 G,2 | F,2 G,2 A,2 | F,4 G,2- | G,2 A,2 B,2) | (C4 G,2 | ^F,4 G,2) | (C4 B,2 | A,4 B,2) | %8
 (C2 D2 E2 | E6) | (A,B, C2[K:treble] DE | FG A2 Bc | [Bd]2) z2 z2 |[K:bass] (E,2 D,3 F, | %14
 G,2 A,2 C2) |!p!!<(! (G,2 F,2 C,2 | D,2 C,4) | C,6 | e2 d3!<)!!mf! [Ff] | %19
 !tenuto![Ee]2 !tenuto![EB]2 !tenuto![DA]2 |!ped! [EB]6-{!stemless![EB]} | z6!ped-up! | %22
!8va(! [e'g']2 [f'a']2 !arpeggio![g'b']2 | [e'g']2 =f'2 [f'a']2 | %24
 [e'^g'^c'']2 [d'^f'b']2 !arpeggio![^gbe']2 | [^g^c'e']2 [ac'e'^g']2 [bd'^f']2 | %26
 [a^c']2 [^gb]2 [ac']2 | [a^c']2 [^gb]2 [ac']2!8va)! | (b2 b3 a | b2 b3 a) | z2 e^f^ga | b2 b3 a | %32
!8va(! ([b=d'=g']2 [a=c']2 [fad']2) | ([bd'g']2 [gbe']2 !arpeggio![fad']2)!8va)! | %34
 ([Bdg]2 [GBe]2 !arpeggio![FAd]2) | ([DG]2 E2 F2) | EF z2 F2 | G2 [GB]2 [FAc]2 | %38
 [Bdg]2 [Beg]2 [Adf]2 | (d2 c3 B | A2 G2 E2) | (G2 F3 E | C2 D2 E2) | (A,2 A,4 | %44
 [B,E]2 [DF]2 [FA]2) | (E2 D3 F | G2 A2 c2) | [Ace]2 [FAd]3 [Adf] | [Beg]2 [dfa]2 [fac']2 | %49
 [c'e'g']2 z2 z2 | z6 | z6 | z6 | z6 |!8va(! .g''2!8va)! z2 z2 |] %55
V:3
 x6 | x6 | x6 | x6 | x6 | x6 | x6 | x6 | x6 | x6 | x6 | x6 | x6 | x6 | x6 | x6 | x6 | x6 | x6 | %19
 x6 | x6 | x6 |!8va(! x6 | x6 | x6 | x6 | x6 | x6!8va)! | x6 | x6 | x6 | x6 |!8va(! x6 | x6!8va)! | %34
 x6 | x6 | x6 | x6 | x6 | [eg]4 [dg]2 | [ce]2 [Bd]2 A2 | [Ac]4 [GB]2 | A2 G2 x2 | x6 | x6 | x6 | %46
 x6 |!8va(! x6 | x6!8va)! |!8va(! x123/64!8va)!!8va(! x2!8va)!!8va(! x2!8va)! | %50
!8va(! x123/64!8va)!!8va(! x2!8va)!!8va(! x2!8va)! | %51
!8va(! x123/64!8va)!!8va(! x2!8va)!!8va(! x2!8va)! |!8va(! x2!8va)!!8va(! x2!8va)!!8va(! x2!8va)! | %53
!8va(! x2!8va)!!8va(! x2!8va)!!8va(! x2!8va)! | x6 |] %55
V:4
!pp! z2 (B,4 |"_poco cresc." A,2 B,2 C2 | B,2 C2 D2 | E6) |!p!!<(! (E4- EC!<)! |!mp!!>(! B,6)!>)! | %6
!p!!<(! E6!<)! |!mp!!>(! F4 G2!>)! |!p!!<(! [FA]6 | B,4 C2 | [FA]4- [FA](A- | AB c2 de!<)! | %12
!mf!!>(! g2) !tenuto!g4!>)! |[K:bass]!pp! (A,6 | D,2 C,4) |!p!!<(! (A,6 | B,2 A,4) | %17
[K:treble] G2 F4 | B2!<)! A4 |!p! !tenuto![B,EB]2 !tenuto![B,EB]2 !tenuto![B,GB]2 | %20
 !tenuto![B,EB]6-{!stemless![EB,B]} |!<(! .B2 .e2 .g2!<)! | %22
!pp! (!arpeggio![egb]2 !arpeggio![efac']2 !arpeggio![egbd']2) | %23
 (!arpeggio![egb]2 !arpeggio![efac']2 !arpeggio![dfac']2) | %24
!<(! (!arpeggio![^ce^g^c']2 !arpeggio![Bd^fb]2 !arpeggio![E^GBe]2) | %25
 !arpeggio![^C^G^ce]2 !arpeggio![^FAce^g]2 !arpeggio![Bd^fa]2 | %26
 (!arpeggio![d^f]2 !arpeggio![^ce]2 !arpeggio![Bdf]2)!<)! | %27
!mf!!>(! (!arpeggio![d^f]2 !arpeggio![^ce]2 !arpeggio![Bdf]2)!>)! | %28
!p!!>(! (!arpeggio![e^g]2 !arpeggio![^ceg]2 !arpeggio![Bd^f]2) | %29
 (!arpeggio![e^g]2 !arpeggio![^ceg]2 !arpeggio![Bd^f]2)!>)! | %30
!pp! (!arpeggio![^GB^d]2 !arpeggio![^FA^c]2 !arpeggio![^D^FAc]2) | %31
 (!arpeggio![^GB^d^g]2 !arpeggio![^FA^c^f]2 !arpeggio![^D^FAc]2) | %32
!pp!!<(! (!arpeggio![GB=d=g]2 !arpeggio![FA=c=f]2 !arpeggio![DFAd]2) | %33
 (!arpeggio![DBdG,g]2 !arpeggio![AcE,B,f]2 !arpeggio![FAdD,A,]2) | %34
[K:bass] (!arpeggio![G,B,DG]2 !arpeggio![E,G,B,E]2 !arpeggio![D,F,A,D]2)!<)! | %35
!f!!>(! z (A, !arpeggio![E,B,]2 !arpeggio![D,C]D) | %36
 (!arpeggio![G,B,]2 !arpeggio![E,B,]2 !arpeggio![D,A,C]2) | %37
 (!arpeggio![G,B,D]2 !arpeggio![E,G,B,E]2 !arpeggio![D,F,A,D]2) | %38
 (!arpeggio![G,,D,B,DG]2 !arpeggio![B,,G,E,,B,E]2 !arpeggio![A,,F,D,,A,D]2)!>)! |!pp! (E,4 G,2 | %40
 A,2 B,2 C2) |"_poco cresc." (F,4 G,2 | A,2 B,2 B,2) |!p!!<(! z2 !>!C2 !>!G,2 | z2 !>!C2 !>!G,2 | %45
 z2 !>!C2 !>!G,2 | z2 !>!C2 !>!G,2 | z2 !>!C2 !>!G,2 | z2 !>!C2 !>!G,2!<)! | %49
[K:treble]!ff! !>![ceg]2 !>![DFA]3 !>![FAc] | !>![ceg]2 !>![DFA]3 !>![FAc] | %51
 !>![ceg]2 !>![DFA]3 !>![FAc] | !>![ceg]7/2 !>![ceg]/4!>![ceg]/4 !>![ceg]2- | %53
 [ceg]3/2!>![ceg]/4!>![ceg]/4 !>![ceg]7/2 !>![ceg]/4!>![ceg]/4 | !>!!fermata![ceg]4 z2 |] %55
V:5
 (C,,4 E,,2 | D,,2 E,,2 F,,2 | G,,2 A,,2 B,,2 | C,4 G,,2) | (A,,6 | E,,6) | (A,,2 B,,2 C,2 | D,6) | %8
 (D,6 | A,,6) | (D,6 | G,6-) | G,2 z2 z2 | F,,6 | F,,6 | F,,6 | F,,6 | (C,6 | D,2 C,4) | %19
 !tenuto![E,,B,,]2 !tenuto![E,,B,,]2 !tenuto![G,,D,]2 |!ped! [E,,D,]6-{!stemless![D,E,,]} | %21
 z6!ped-up! |[K:treble] e2 e2 e2 | e2 e2 d2 | ^c2 B2 E2 | ^C2 ^F2 B2 | (d2 ^c2 B2) | (d2 ^c2 B2) | %28
 (e2 ^c2 B2) | (e2 ^c2 B2) | (^G2 ^F2 ^D2) | (^G2 ^F2 ^D2) | (=G2 =F2 D2) | %33
[K:bass] ([G,D]2 [E,B,]2 [D,A,]2) |[K:bass] (G,2 E,2 D,2) | (G,2 E,2 D,2) | (G,2 E,2 D,2) | %37
 (G,2 E,2 D,2) | ([G,,D,]2 [E,,B,,]2 [D,,A,,]2) | ([C,,G,,]4 [E,,B,,]2 | %40
 [F,,C,]2 [G,,D,]2 [A,,E,]2) | ([D,,A,,]4 [E,,B,,]2 | [F,,C,]2 [G,,D,]2 [A,,E,]2) | [F,,C,]6 | %44
 [F,,C,]6 | [F,,C,]6 | [F,,C,]6 | [F,,C,]6 | [F,,C,]6 | z2 !>!C2 !>!G,2 | z2 !>!C2 !>!G,2 | %51
 z2 !>!C2 !>!G,2 | !>!C,,2 !>!G,,,2 !>!C,,2 | !>!G,,,2 !>!C,,2 !>!G,,,2 | %54
 !>!!fermata![C,,,C,,]4 z2 |] %55
V:6
 x6 | x6 | x6 | x6 | x6 | x6 | x6 | x6 | x6 | x6 | x6 | x6 | x6 |[K:bass] x6 | x6 | x6 | x6 | %17
[K:treble] z2 z2 (C2 | B,2 A,4) | x6 | x2 .E2 .G2 | x6 | x6 | x6 | x6 | x6 | x6 | x6 | x6 | x6 | %30
 x6 | x6 | x6 | x6 |[K:bass] x6 | x6 | x6 | x6 | x6 | x6 | x6 | x6 | x6 | x6 | x6 | x6 | x6 | x6 | %48
 x6 |[K:treble] x6 | x6 | x6 | x6 | x6 | x6 |] %55
V:7
 x6 | x6 | x6 | x6 | x6 | x6 | x6 | x6 | x6 | x6 | x6 | x6 | x6 | x6 | x6 | x6 | x6 | F,,6 | F,,6 | %19
 x6 | x6 | x6 |[K:treble] x6 | x6 | x6 | x6 | x6 | x6 | x6 | x6 | x6 | x6 | x6 |[K:bass] x6 | %34
[K:bass] x6 | x6 | x6 | x6 | x6 | x6 | x6 | x6 | x6 | x6 | x6 | x6 | x6 | x6 | x6 | !>!C,,6 | %50
 !>!C,,6 | !>!C,,6 | x6 | x6 | x6 |] %55

